humanity-icon-theme/Humanity/emblems/24/emblem-ubuntuone-synchronized.svg

<?xml version="1.0" encoding="UTF-8" standalone="no"?>
<!-- Created with Inkscape (http://www.inkscape.org/) -->
<svg
   xmlns:svg="http://www.w3.org/2000/svg"
   xmlns="http://www.w3.org/2000/svg"
   xmlns:xlink="http://www.w3.org/1999/xlink"
   version="1.0"
   width="24"
   height="24"
   id="svg3265">
  <defs
     id="defs3267">
    <linearGradient
       id="linearGradient2490">
      <stop
         id="stop2492"
         style="stop-color:#455f0e;stop-opacity:1"
         offset="0" />
      <stop
         id="stop2494"
         style="stop-color:#84a718;stop-opacity:1"
         offset="1" />
    </linearGradient>
    <linearGradient
       x1="10"
       y1="29.4849"
       x2="10"
       y2="0"
       id="linearGradient3390"
       xlink:href="#linearGradient2490"
       gradientUnits="userSpaceOnUse" />
    <linearGradient
       id="linearGradient3255">
      <stop
         id="stop3257"
         style="stop-color:#eef87e;stop-opacity:1"
         offset="0" />
      <stop
         id="stop3259"
         style="stop-color:#cde34f;stop-opacity:1"
         offset="0.31737828" />
      <stop
         id="stop3261"
         style="stop-color:#93b723;stop-opacity:1"
         offset="0.79344571" />
      <stop
         id="stop3263"
         style="stop-color:#5a7e0d;stop-opacity:1"
         offset="1" />
    </linearGradient>
    <linearGradient
       x1="17.490429"
       y1="-7.9936939e-08"
       x2="17.490429"
       y2="30.318369"
       id="linearGradient3253"
       xlink:href="#linearGradient3255"
       gradientUnits="userSpaceOnUse" />
    <linearGradient
       id="linearGradient4222">
      <stop
         id="stop4224"
         style="stop-color:#ffffff;stop-opacity:1"
         offset="0" />
      <stop
         id="stop4226"
         style="stop-color:#ffffff;stop-opacity:0"
         offset="1" />
    </linearGradient>
    <linearGradient
       x1="14"
       y1="0"
       x2="14"
       y2="19.168026"
       id="linearGradient3236"
       xlink:href="#linearGradient4222"
       gradientUnits="userSpaceOnUse" />
  </defs>
  <g
     id="layer1">
    <path
       d="M 19.197367,0.50609523 C 18.833297,0.46983298 18.471341,0.64483475 18.284282,0.98080883 L 10.314316,15.292551 L 5.1901428,11.293824 C 4.7337028,11.049042 4.1642238,11.206513 3.9148118,11.654481 L 1.6169158,14.549912 C 1.3675088,14.997872 1.5352938,15.556615 1.9917288,15.801394 C 1.9917288,15.801394 11.347827,23.385275 11.359372,23.390885 C 11.466348,23.448258 11.578218,23.477125 11.691936,23.491227 C 12.063413,23.537294 12.443574,23.366005 12.634526,23.023033 L 23.383083,3.7218718 C 23.632492,3.2739074 23.464709,2.7151681 23.008272,2.4703886 L 19.559439,0.61295466 C 19.445328,0.55175893 19.318725,0.51818277 19.197367,0.50609523 z"
       id="path1542"
       style="fill:url(#linearGradient3253);fill-opacity:1;fill-rule:nonzero;stroke:url(#linearGradient3390);stroke-width:1.00278974;stroke-linecap:round;stroke-linejoin:round;marker:none;marker-start:none;marker-mid:none;marker-end:none;stroke-miterlimit:4;stroke-dasharray:none;stroke-dashoffset:0;stroke-opacity:1;visibility:visible;display:inline;overflow:visible" />
    <path
       d="M 19.125,1.53125 C 16.479167,6.28125 13.833333,11.03125 11.1875,15.78125 C 10.709917,16.651798 9.6978243,16.239286 9.1633475,15.68239 C 7.6922316,14.527843 6.2211158,13.373297 4.75,12.21875 C 4.0055465,13.121813 3.2941739,14.054315 2.5625,14.96875 C 5.6391146,17.462611 8.7289018,19.943998 11.78125,22.46875 C 15.333333,16.083333 18.885417,9.6979167 22.4375,3.3125 C 21.333333,2.71875 20.229167,2.125 19.125,1.53125 z"
       id="path3231"
       style="opacity:0.4;fill:none;fill-opacity:1;fill-rule:nonzero;stroke:url(#linearGradient3236);stroke-width:1.00278974;stroke-linecap:round;stroke-linejoin:round;marker:none;marker-start:none;marker-mid:none;marker-end:none;stroke-miterlimit:4;stroke-dasharray:none;stroke-dashoffset:0;stroke-opacity:1;visibility:visible;display:inline;overflow:visible" />
  </g>
</svg>

<?xml version="1.0" encoding="UTF-8" standalone="no"?>
<!-- Created with Inkscape (http://www.inkscape.org/) -->
<svg id="svg3265" xmlns="http://www.w3.org/2000/svg" height="24" width="24" version="1.0" xmlns:xlink="http://www.w3.org/1999/xlink">
 <defs id="defs3267">
  <linearGradient id="linearGradient3390" gradientUnits="userSpaceOnUse" x2="10" y1="29.485" x1="10">
   <stop id="stop2492" style="stop-color:#455f0e" offset="0"/>
   <stop id="stop2494" style="stop-color:#84a718" offset="1"/>
  </linearGradient>
  <linearGradient id="linearGradient3253" y2="30.318" gradientUnits="userSpaceOnUse" x2="17.49" y1="-7.9937e-8" x1="17.49">
   <stop id="stop3257" style="stop-color:#eef87e" offset="0"/>
   <stop id="stop3259" style="stop-color:#cde34f" offset=".31738"/>
   <stop id="stop3261" style="stop-color:#93b723" offset=".79345"/>
   <stop id="stop3263" style="stop-color:#5a7e0d" offset="1"/>
  </linearGradient>
  <linearGradient id="linearGradient3236" y2="19.168" gradientUnits="userSpaceOnUse" x2="14" x1="14">
   <stop id="stop4224" style="stop-color:#fff" offset="0"/>
   <stop id="stop4226" style="stop-color:#fff;stop-opacity:0" offset="1"/>
  </linearGradient>
 </defs>
 <g id="layer1">
  <path id="path1542" style="stroke-linejoin:round;stroke:url(#linearGradient3390);stroke-linecap:round;stroke-width:1.0028;fill:url(#linearGradient3253)" d="m19.197 0.5061c-0.364-0.03627-0.726 0.13873-0.913 0.47471l-7.97 14.312-5.1239-3.999c-0.4564-0.245-1.0259-0.087-1.2753 0.36l-2.2979 2.896c-0.2494 0.448-0.0816 1.007 0.3748 1.251 0 0 9.3563 7.584 9.3673 7.59 0.107 0.057 0.219 0.086 0.333 0.1 0.371 0.046 0.752-0.125 0.943-0.468l10.748-19.301c0.249-0.4481 0.082-1.0068-0.375-1.2516l-3.449-1.8574c-0.114-0.06124-0.24-0.09482-0.362-0.1069z"/>
  <path id="path3231" style="opacity:.4;stroke-linejoin:round;stroke:url(#linearGradient3236);stroke-linecap:round;stroke-width:1.0028;fill:none" d="m19.125 1.5312c-2.646 4.75-5.292 9.4998-7.937 14.25-0.478 0.871-1.4902 0.458-2.0247-0.099-1.4711-1.154-2.9422-2.309-4.4133-3.463-0.7445 0.903-1.4558 1.835-2.1875 2.75 3.0766 2.494 6.1664 4.975 9.2185 7.5 3.552-6.386 7.104-12.771 10.657-19.156-1.105-0.5942-2.209-1.188-3.313-1.7818z"/>
 </g>
</svg>
